src/lib/packages/icons/src/assets/line/hand-holding-dollar.svg

<svg width="24" height="24" viewBox="0 0 24 24" fill="none" xmlns="http://www.w3.org/2000/svg">
<path d="M20.692 14.543C20.03 14.168 19.246 14.1779 18.592 14.5699L16.622 15.752C16.313 14.878 15.478 14.25 14.5 14.25H9C8.359 14.25 7.77601 14.48 7.30801 14.849C6.98701 14.485 6.523 14.25 6 14.25H4C3.035 14.25 2.25 15.035 2.25 16V20C2.25 20.965 3.035 21.75 4 21.75H6C6.522 21.75 6.98701 21.515 7.30801 21.151C7.77601 21.52 8.359 21.75 9 21.75H14.597C15.671 21.75 16.725 21.38 17.565 20.709L20.968 17.986C21.465 17.588 21.75 16.994 21.75 16.358C21.75 15.597 21.354 14.918 20.692 14.543ZM6.25 20C6.25 20.138 6.138 20.25 6 20.25H4C3.862 20.25 3.75 20.138 3.75 20V16C3.75 15.862 3.862 15.75 4 15.75H6C6.138 15.75 6.25 15.862 6.25 16V17V19V20ZM20.03 16.8149L16.627 19.537C16.053 19.996 15.332 20.249 14.596 20.249H9C8.311 20.249 7.75 19.688 7.75 18.999V16.999C7.75 16.31 8.311 15.749 9 15.749H14.5C14.914 15.749 15.25 16.085 15.25 16.499C15.25 16.913 14.914 17.249 14.5 17.249H11C10.586 17.249 10.25 17.585 10.25 17.999C10.25 18.413 10.586 18.749 11 18.749H14.5C15.343 18.749 16.08 18.283 16.465 17.595L19.364 15.856C19.626 15.697 19.864 15.798 19.953 15.848C20.042 15.899 20.25 16.05 20.25 16.358C20.25 16.537 20.17 16.7039 20.03 16.8149ZM9.763 7.18103C9.434 6.76403 9.25 6.23106 9.25 5.68506C9.25 4.49806 10.104 3.51002 11.23 3.29602V3C11.23 2.586 11.566 2.25 11.98 2.25C12.394 2.25 12.73 2.586 12.73 3V3.28894C13.78 3.46994 14.612 4.32202 14.735 5.41602C14.781 5.82802 14.485 6.199 14.074 6.245C13.671 6.295 13.291 5.99598 13.245 5.58398C13.191 5.10798 12.791 4.75 12.315 4.75H11.685C11.169 4.75 10.75 5.16906 10.75 5.68506C10.75 5.89406 10.819 6.097 10.944 6.255C11.076 6.425 11.253 6.54004 11.459 6.59204L12.906 6.95105C13.993 7.22605 14.75 8.19796 14.75 9.31396C14.75 9.96297 14.496 10.574 14.035 11.035C13.675 11.395 13.221 11.624 12.73 11.709V12C12.73 12.414 12.394 12.75 11.98 12.75C11.566 12.75 11.23 12.414 11.23 12V11.708C10.198 11.513 9.38601 10.665 9.26501 9.58398C9.21901 9.17198 9.51499 8.801 9.92599 8.755C10.328 8.70601 10.709 9.00402 10.755 9.41602C10.809 9.89202 11.209 10.25 11.685 10.25H12.315C12.563 10.25 12.797 10.152 12.974 9.97498C13.152 9.79698 13.25 9.56294 13.25 9.31494C13.25 8.88594 12.958 8.51298 12.541 8.40698L11.094 8.04797C10.566 7.91397 10.094 7.60603 9.763 7.18103Z" fill="currentColor"/>
</svg>

<svg xmlns="http://www.w3.org/2000/svg" width="24" height="24" fill="none"><path fill="currentColor" d="M20.692 14.543a2.06 2.06 0 0 0-2.1.027l-1.97 1.182A2.254 2.254 0 0 0 14.5 14.25H9c-.641 0-1.224.23-1.692.599A1.74 1.74 0 0 0 6 14.25H4c-.965 0-1.75.785-1.75 1.75v4c0 .965.785 1.75 1.75 1.75h2c.522 0 .987-.235 1.308-.599A2.723 2.723 0 0 0 9 21.75h5.597c1.074 0 2.128-.37 2.968-1.041l3.403-2.723c.497-.398.782-.992.782-1.628 0-.761-.396-1.44-1.058-1.815ZM6.25 20a.25.25 0 0 1-.25.25H4a.25.25 0 0 1-.25-.25v-4a.25.25 0 0 1 .25-.25h2a.25.25 0 0 1 .25.25v4Zm13.78-3.185-3.403 2.722a3.263 3.263 0 0 1-2.031.712H9c-.689 0-1.25-.561-1.25-1.25v-2c0-.689.561-1.25 1.25-1.25h5.5a.75.75 0 0 1 0 1.5H11a.75.75 0 0 0 0 1.5h3.5c.843 0 1.58-.466 1.965-1.154l2.899-1.739a.574.574 0 0 1 .589-.008.577.577 0 0 1 .297.51.58.58 0 0 1-.22.457ZM9.763 7.18a2.436 2.436 0 0 1 1.467-3.885V3a.75.75 0 0 1 1.5 0v.289a2.433 2.433 0 0 1 2.005 2.127.75.75 0 0 1-1.49.168.937.937 0 0 0-.93-.834h-.63a.936.936 0 0 0-.226 1.842l1.447.36a2.437 2.437 0 0 1 1.844 2.362c0 .649-.254 1.26-.715 1.721-.36.36-.814.589-1.305.674V12a.75.75 0 0 1-1.5 0v-.292a2.435 2.435 0 0 1-1.965-2.124.75.75 0 0 1 1.49-.168.937.937 0 0 0 .93.834h.63a.927.927 0 0 0 .659-.275.928.928 0 0 0 .276-.66.938.938 0 0 0-.709-.908l-1.447-.359a2.46 2.46 0 0 1-1.331-.867Z"/></svg>
